!!!OTL: Steh ich an mein Fensterlein, schau so trueb, so traurig drein
!!!ARE: Europa, Mitteleuropa, Deutschland, Baden, Freiburg i. Brsg.
!!!SCT: D0093
!!!YEM: Copyright 1995, estate of Helmut Schaffrath.
**kern
*ICvox
*Ivox
!! Mixed meters:  3/4; 2/4
*M2/4
*k[f#c#]
*D:
=1
{8f#
8g
=2
4.a
8b
8a
8a
=3
4g
4r}
=4
{8a
8dd
=5
*M3/4
4.ff#
8ee
8ee
8dd
=6
*M2/4
4a
4r}
=7
{8dd
8cc#
=8
*M3/4
4.b
8b
8b
8b
=9
*M2/4
4a
4r}
=10
{8a
8a
=11
4g
4cc#
=12
4dd
4r}
=13
{8dd
8cc#
=14
*M3/4
4.b
8b
8b
8b
=15
*M2/4
4a
4r}
=16
{8a
8a
=17
4g
4cc#
=18
4dd
4r}
==
!!!AGN: Liebesschmerz
!! Inzipit = Variante zum Lied
!!!ONB: ESAC (Essen Associative Code) Database: DVA
!!!AMT: irregular
!!!AIN: vox
!!!EED: Helmut Schaffrath
!!!EEV: 1.0
*-
